Sources/FrostedUI/Resources/Icons.xcassets/messageSlashed20.imageset/message-slashed-20.svg

<svg width="20" height="20" viewBox="0 0 20 20" fill="none" xmlns="http://www.w3.org/2000/svg" data-fui-icon="true">
  <path
    d="M17.7548 2.18646C18.0659 1.91309 18.5399 1.94375 18.8134 2.25482C19.0868 2.56596 19.0561 3.04 18.745 3.31342L18.3417 3.66693C18.4556 4.04984 18.4589 4.46952 18.4589 4.79095V13.541C18.4589 14.8762 17.3771 15.9579 16.0419 15.9579H12.8143C12.7946 15.958 12.7751 15.9653 12.7616 15.9765L12.2821 15.3994V15.4003L12.7616 15.9765L12.7606 15.9775L11.0116 17.4267C10.4221 17.9153 9.56899 17.9107 8.98425 17.4208L7.26257 15.9775L7.23816 15.9628C7.2292 15.9595 7.21955 15.9579 7.20984 15.9579H4.35632L2.245 17.8134C1.93385 18.0868 1.45982 18.0562 1.1864 17.7451C0.91307 17.4339 0.943656 16.9599 1.25476 16.6865L17.7548 2.18646ZM6.06335 14.4579H7.20984C7.58227 14.4579 7.94172 14.5892 8.22644 14.8281L9.94812 16.2714H9.94714C9.97835 16.2976 10.024 16.2967 10.0546 16.2714L11.8036 14.8222C12.0878 14.5862 12.4467 14.458 12.8143 14.4579H16.0419C16.5487 14.4579 16.9589 14.0477 16.9589 13.541V4.88275L6.06335 14.4579ZM13.2499 2.37494C13.6641 2.37494 13.9998 2.71076 13.9999 3.12494C13.9999 3.53915 13.6641 3.87494 13.2499 3.87494H3.95886C3.45213 3.87498 3.04191 4.2852 3.04187 4.79193V13.2499C3.04187 13.6642 2.70608 13.9999 2.29187 13.9999C1.87769 13.9999 1.54187 13.6641 1.54187 13.2499V4.79193C1.54191 3.45677 2.62371 2.37498 3.95886 2.37494H13.2499Z"
    fill="currentColor"
  />
</svg>

<svg xmlns="http://www.w3.org/2000/svg" width="20" height="20" fill="none" data-fui-icon="true" viewBox="0 0 20 20"><path fill="currentColor" d="M17.755 2.186a.75.75 0 0 1 .99 1.127l-.403.354c.114.383.117.803.117 1.124v8.75a2.416 2.416 0 0 1-2.417 2.417h-3.228q-.031 0-.052.018l-.48-.577v.001l.48.576-.001.001-1.75 1.45a1.584 1.584 0 0 1-2.027-.006l-1.721-1.444-.025-.014a.1.1 0 0 0-.028-.005H4.356l-2.111 1.855a.75.75 0 0 1-.99-1.126zM6.063 14.458H7.21c.372 0 .732.131 1.016.37l1.722 1.443a.084.084 0 0 0 .107 0l1.749-1.449a1.6 1.6 0 0 1 1.01-.364h3.228c.507 0 .917-.41.917-.917V4.883zM13.25 2.375a.75.75 0 0 1 0 1.5H3.959a.917.917 0 0 0-.917.917v8.458a.75.75 0 1 1-1.5 0V4.792a2.417 2.417 0 0 1 2.417-2.417z"/></svg>
